material/.icons/material/arrow-collapse-all.svg

<svg xmlns="http://www.w3.org/2000/svg" viewBox="0 0 24 24"><path d="M19.5 3.09l1.41 1.41-4.5 4.5H20v2h-7V4h2v3.59l4.5-4.5m1.41 16.41l-1.41 1.41-4.5-4.5V20h-2v-7h7v2h-3.59l4.5 4.5M4.5 3.09L9 7.59V4h2v7H4V9h3.59l-4.5-4.5L4.5 3.09M3.09 19.5l4.5-4.5H4v-2h7v7H9v-3.59l-4.5 4.5-1.41-1.41z"/></svg>

<?xml version="1.0" encoding="UTF-8"?><!DOCTYPE svg PUBLIC "-//W3C//DTD SVG 1.1//EN" "http://www.w3.org/Graphics/SVG/1.1/DTD/svg11.dtd"><svg xmlns="http://www.w3.org/2000/svg" xmlns:xlink="http://www.w3.org/1999/xlink" version="1.1" id="mdi-arrow-collapse-all" width="24" height="24" viewBox="0 0 24 24"><path d="M19.5,3.09L20.91,4.5L16.41,9H20V11H13V4H15V7.59L19.5,3.09M20.91,19.5L19.5,20.91L15,16.41V20H13V13H20V15H16.41L20.91,19.5M4.5,3.09L9,7.59V4H11V11H4V9H7.59L3.09,4.5L4.5,3.09M3.09,19.5L7.59,15H4V13H11V20H9V16.41L4.5,20.91L3.09,19.5Z" /></svg>
